X: 21
T:Piper's Despair, The
M:C|
R:reel
K:Edor
|:EFGA BAGA|BdAB dBAF|D2(3FED ADFA|BdAB dBAF|
EFGA BAGA|BdAB dBAF|~D2FA dfaf| gfed Be~e2:|
|:e2ge bege|efga bgaf|d~f3 a~f3|d~f3 afgf|
e2ge bege|efga bgaf|~d3f ~a3f| gfed Be~e2:|

